Icons/rename_me_adw_launcher.svg

<svg viewBox="0 0 48 48" xmlns:xlink="http://www.w3.org/1999/xlink">
 <defs>
  <linearGradient id="0">
   <stop stop-opacity="0"/>
   <stop offset="1"/>
  </linearGradient>
  <linearGradient xlink:href="#0" id="1" gradientUnits="userSpaceOnUse" gradientTransform="translate(4e-7,-48)" y1="47" x2="0" y2="1"/>
  <clipPath id="2">
   <g transform="translate(0,-1004.3622)">
    <rect rx="4" y="1005.36" x="1" height="46" width="46" fill="#1890d0"/>
   </g>
  </clipPath>
  <clipPath id="3">
   <g transform="translate(0,-1004.3622)">
    <rect rx="4" y="1005.36" x="1" height="46" width="46" fill="#1890d0"/>
   </g>
  </clipPath>
 </defs>
 <g>
  <g transform="translate(0,-1004.3622)">
   <path d="m 5,1006.3622 c -2.216,0 -4,1.784 -4,4 l 0,37.25 c 0,2.216 1.784,4 4,4 l 38,0 c 2.216,0 4,-1.784 4,-4 l 0,-37.25 c 0,-2.216 -1.784,-4 -4,-4 l -38,0 z m -4,41.5 0,0.5 c 0,2.216 1.784,4 4,4 l 38,0 c 2.216,0 4,-1.784 4,-4 l 0,-0.5 c 0,2.216 -1.784,4 -4,4 l -38,0 c -2.216,0 -4,-1.784 -4,-4 z" opacity="0.02"/>
   <path d="m 1,1047.6122 0,0.25 c 0,2.216 1.784,4 4,4 l 38,0 c 2.216,0 4,-1.784 4,-4 l 0,-0.25 c 0,2.216 -1.784,4 -4,4 l -38,0 c -2.216,0 -4,-1.784 -4,-4 z" opacity="0.05"/>
   <rect width="46" height="46" x="1" y="1005.61" rx="4" opacity="0.1"/>
  </g>
 </g>
 <g>
  <g transform="translate(0,-1004.3622)">
   <rect rx="4" y="1005.36" x="1" height="46" width="46" fill="#5ba9dc"/>
  </g>
 </g>
 <g>
  <rect transform="scale(1,-1)" width="46" height="46" x="1" y="-46.998" rx="4" opacity="0.1" fill="url(#1)"/>
 </g>
 <g>
  <g clip-path="url(#2)">
   <g opacity="0.1">
    <g>
     <path d="M 31.886719 16 L 33.113281 16 C 33.605469 16 34 16.394531 34 16.886719 L 34 23 L 33 23 L 31 21.113281 L 31 16.886719 C 31 16.394531 31.394531 16 31.886719 16 Z M 31.886719 16 "/>
     <path d="M 24 17 L 15 25 L 15 35 L 21 35 L 21 27.25 C 21 27.113281 21.113281 27 21.25 27 L 26.75 27 C 26.886719 27 27 27.113281 27 27.25 L 27 35 L 33 35 L 33 25 Z M 24 17 "/>
     <path d="M 12 26 L 11 25 L 24 13 L 37 25 L 36 26 L 24 15 Z M 12 26 "/>
    </g>
   </g>
  </g>
 </g>
 <g>
  <g clip-path="url(#3)">
   <g transform="translate(0,-1)">
    <g>
     <path d="M 31.886719 16 L 33.113281 16 C 33.605469 16 34 16.394531 34 16.886719 L 34 23 L 33 23 L 31 21.113281 L 31 16.886719 C 31 16.394531 31.394531 16 31.886719 16 Z M 31.886719 16 " fill="#ececec"/>
     <path d="M 24 17 L 15 25 L 15 35 L 21 35 L 21 27.25 C 21 27.113281 21.113281 27 21.25 27 L 26.75 27 C 26.886719 27 27 27.113281 27 27.25 L 27 35 L 33 35 L 33 25 Z M 24 17 " fill="#ececec"/>
     <path d="M 12 26 L 11 25 L 24 13 L 37 25 L 36 26 L 24 15 Z M 12 26 " fill="#ececec"/>
    </g>
   </g>
  </g>
 </g>
 <g>
  <g transform="translate(0,-1004.3622)">
   <path d="m 1,1043.3622 0,4 c 0,2.216 1.784,4 4,4 l 38,0 c 2.216,0 4,-1.784 4,-4 l 0,-4 c 0,2.216 -1.784,4 -4,4 l -38,0 c -2.216,0 -4,-1.784 -4,-4 z" opacity="0.1"/>
  </g>
 </g>
</svg>

<svg viewBox="0 0 48 48"><defs><linearGradient id="linearGradient3764" x1="1" x2="47" gradientUnits="userSpaceOnUse" gradientTransform="translate(-48.000001,0.00221467)"><stop stop-color="#4ba2d9" stop-opacity="1"/><stop offset="1" stop-color="#5ba9dc" stop-opacity="1"/></linearGradient><clipPath id="clipPath-559435077"><g transform="translate(0,-1004.3622)"><rect rx="4" y="1005.36" x="1" height="46" width="46" fill="#1890d0"/></g></clipPath><clipPath id="clipPath-571982744"><g transform="translate(0,-1004.3622)"><rect rx="4" y="1005.36" x="1" height="46" width="46" fill="#1890d0"/></g></clipPath></defs><g><path d="m 1 43 l 0 0.25 c 0 2.216 1.784 4 4 4 l 38 0 c 2.216 0 4 -1.784 4 -4 l 0 -0.25 c 0 2.216 -1.784 4 -4 4 l -38 0 c -2.216 0 -4 -1.784 -4 -4 z m 0 0.5 l 0 0.5 c 0 2.216 1.784 4 4 4 l 38 0 c 2.216 0 4 -1.784 4 -4 l 0 -0.5 c 0 2.216 -1.784 4 -4 4 l -38 0 c -2.216 0 -4 -1.784 -4 -4 z" opacity="0.02"/><path d="m 1 43.25 l 0 0.25 c 0 2.216 1.784 4 4 4 l 38 0 c 2.216 0 4 -1.784 4 -4 l 0 -0.25 c 0 2.216 -1.784 4 -4 4 l -38 0 c -2.216 0 -4 -1.784 -4 -4 z" opacity="0.05"/><path d="m 1 43 l 0 0.25 c 0 2.216 1.784 4 4 4 l 38 0 c 2.216 0 4 -1.784 4 -4 l 0 -0.25 c 0 2.216 -1.784 4 -4 4 l -38 0 c -2.216 0 -4 -1.784 -4 -4 z" opacity="0.1"/></g><g><rect width="46" height="46" x="-47" y="1" rx="4" transform="matrix(0,-1,1,0,0,0)" fill="url(#linearGradient3764)" fill-opacity="1"/></g><g><g clip-path="url(#clipPath-559435077)"><g opacity="0.1"><!-- color: #5ba9dc --><g><path d="m 31.887 16 l 1.227 0 c 0.492 0 0.887 0.395 0.887 0.887 l 0 6.113 l -1 0 l -2 -1.887 l 0 -4.227 c 0 -0.492 0.395 -0.887 0.887 -0.887 m 0 0" fill="#000"/><path d="m 24 17 l -9 8 l 0 10 l 6 0 l 0 -7.75 c 0 -0.137 0.113 -0.25 0.25 -0.25 l 5.5 0 c 0.137 0 0.25 0.113 0.25 0.25 l 0 7.75 l 6 0 l 0 -10 m -9 -8" fill="#000"/><path d="m 12 26 l -1 -1 l 13 -12 l 13 12 l -1 1 l -12 -11 m -12 11" fill="#000"/></g></g></g></g><g><g clip-path="url(#clipPath-571982744)"><g transform="translate(0,-1)"><!-- color: #5ba9dc --><g><path d="m 31.887 16 l 1.227 0 c 0.492 0 0.887 0.395 0.887 0.887 l 0 6.113 l -1 0 l -2 -1.887 l 0 -4.227 c 0 -0.492 0.395 -0.887 0.887 -0.887 m 0 0" fill="#ececec"/><path d="m 24 17 l -9 8 l 0 10 l 6 0 l 0 -7.75 c 0 -0.137 0.113 -0.25 0.25 -0.25 l 5.5 0 c 0.137 0 0.25 0.113 0.25 0.25 l 0 7.75 l 6 0 l 0 -10 m -9 -8" fill="#ececec"/><path d="m 12 26 l -1 -1 l 13 -12 l 13 12 l -1 1 l -12 -11 m -12 11" fill="#ececec"/></g></g></g></g><g><g transform="translate(0,-1004.3622)"><path d="m 1 1043.36 0 4 c 0 2.216 1.784 4 4 4 l 38 0 c 2.216 0 4 -1.784 4 -4 l 0 -4 c 0 2.216 -1.784 4 -4 4 l -38 0 c -2.216 0 -4 -1.784 -4 -4 z" opacity="0.1"/></g></g></svg>
